Sources/FrostedUI/Resources/Icons.xcassets/sparkleRectangle24.imageset/sparkle-rectangle-24.svg

<svg width="24" height="24" viewBox="0 0 24 24" fill="none" xmlns="http://www.w3.org/2000/svg" data-fui-icon="true">
  <path
    d="M11.25 2C11.6642 2 12 2.33579 12 2.75C12 3.16421 11.6642 3.5 11.25 3.5H4.4502C3.37324 3.5 2.5 4.37324 2.5 5.4502V18.5498C2.5 19.6268 3.37324 20.5 4.4502 20.5H17.5498C18.6268 20.5 19.5 19.6268 19.5 18.5498V13.75C19.5 13.3358 19.8358 13 20.25 13C20.6642 13 21 13.3358 21 13.75V18.5498C21 20.4552 19.4552 22 17.5498 22H4.4502C2.54481 22 1 20.4552 1 18.5498V5.4502C1 3.54481 2.54481 2 4.4502 2H11.25ZM17.5 1C17.9142 1 18.25 1.33579 18.25 1.75C18.25 2.64229 18.7394 3.64957 19.5449 4.45508C20.3504 5.26058 21.3577 5.75 22.25 5.75C22.6642 5.75 23 6.08579 23 6.5C23 6.91421 22.6642 7.25 22.25 7.25C21.4022 7.25 20.3994 7.81899 19.5625 8.71387C19.1569 9.14761 18.8209 9.62711 18.5898 10.0869C18.3544 10.5554 18.25 10.9588 18.25 11.25C18.25 11.6642 17.9142 12 17.5 12C17.0858 12 16.75 11.6642 16.75 11.25C16.75 10.9884 16.6348 10.6012 16.3604 10.125C16.0936 9.66207 15.7111 9.17596 15.2676 8.73242C14.824 8.28888 14.3379 7.90641 13.875 7.63965C13.3988 7.36523 13.0116 7.25 12.75 7.25C12.3358 7.25 12 6.91421 12 6.5C12 6.08579 12.3358 5.75 12.75 5.75C13.0412 5.75 13.4446 5.64557 13.9131 5.41016C14.3729 5.17907 14.8524 4.8431 15.2861 4.4375C16.181 3.60059 16.75 2.59785 16.75 1.75C16.75 1.33579 17.0858 1 17.5 1ZM17.4521 4.17676C17.1264 4.68094 16.7296 5.14135 16.3105 5.5332C15.8911 5.92548 15.4286 6.27033 14.957 6.54688C15.4374 6.86195 15.9059 7.24967 16.3281 7.67188C16.75 8.09375 17.1372 8.56202 17.4521 9.04199C17.7287 8.57051 18.0746 8.10886 18.4668 7.68945C18.8586 7.2705 19.3182 6.87259 19.8223 6.54688C19.3321 6.26311 18.8788 5.91007 18.4844 5.51562C18.0896 5.12087 17.736 4.6674 17.4521 4.17676Z"
    fill="currentColor"
  />
</svg>

<svg xmlns="http://www.w3.org/2000/svg" width="24" height="24" fill="none" data-fui-icon="true" viewBox="0 0 24 24"><path fill="currentColor" d="M11.25 2a.75.75 0 0 1 0 1.5h-6.8A1.95 1.95 0 0 0 2.5 5.45v13.1a1.95 1.95 0 0 0 1.95 1.95h13.1a1.95 1.95 0 0 0 1.95-1.95v-4.8a.75.75 0 0 1 1.5 0v4.8A3.45 3.45 0 0 1 17.55 22H4.45A3.45 3.45 0 0 1 1 18.55V5.45A3.45 3.45 0 0 1 4.45 2zm6.25-1a.75.75 0 0 1 .75.75c0 .892.49 1.9 1.295 2.705S21.358 5.75 22.25 5.75a.75.75 0 0 1 0 1.5c-.848 0-1.85.569-2.687 1.464a6 6 0 0 0-.973 1.373c-.236.468-.34.872-.34 1.163a.75.75 0 0 1-1.5 0c0-.262-.115-.649-.39-1.125a7 7 0 0 0-1.092-1.393 7 7 0 0 0-1.393-1.092c-.476-.275-.863-.39-1.125-.39a.75.75 0 0 1 0-1.5c.291 0 .695-.104 1.163-.34.46-.23.94-.567 1.373-.973.895-.836 1.464-1.84 1.464-2.687A.75.75 0 0 1 17.5 1m-.048 3.177a7.3 7.3 0 0 1-1.142 1.356c-.419.392-.881.737-1.353 1.014.48.315.949.703 1.371 1.125s.81.89 1.124 1.37a7.7 7.7 0 0 1 1.015-1.353 7.3 7.3 0 0 1 1.355-1.142 6.5 6.5 0 0 1-1.338-1.031 6.5 6.5 0 0 1-1.032-1.34"/></svg>
